apps/16/duckduckgo.svg

<?xml version="1.0" encoding="UTF-8" standalone="no"?>
<svg
   version="1.1"
   viewBox="0 0 16 16"
   id="svg19"
   width="16"
   height="16"
   xmlns="http://www.w3.org/2000/svg"
   xmlns:svg="http://www.w3.org/2000/svg"
   xmlns:rdf="http://www.w3.org/1999/02/22-rdf-syntax-ns#"
   xmlns:cc="http://creativecommons.org/ns#"
   xmlns:dc="http://purl.org/dc/elements/1.1/">
   <defs>
      <style id="current-color-scheme" type="text/css">
         .ColorScheme-Text { color: #0abdc6; } .ColorScheme-Highlight { color:#5294e2; }
      </style>
      <linearGradient id="arrongin" x1="0%" x2="0%" y1="0%" y2="100%">
         <stop offset="0%" style="stop-color:#dd9b44; stop-opacity:1"/>
         <stop offset="100%" style="stop-color:#ad6c16; stop-opacity:1"/>
      </linearGradient>
      <linearGradient id="aurora" x1="0%" x2="0%" y1="0%" y2="100%">
         <stop offset="0%" style="stop-color:#09D4DF; stop-opacity:1"/>
         <stop offset="100%" style="stop-color:#9269F4; stop-opacity:1"/>
      </linearGradient>
      <linearGradient id="cyberneon" x1="0%" x2="0%" y1="0%" y2="100%">
         <stop offset="0" style="stop-color:#0abdc6; stop-opacity:1"/>
         <stop offset="1" style="stop-color:#ea00d9; stop-opacity:1"/>
      </linearGradient>
      <linearGradient id="fitdance" x1="0%" x2="0%" y1="0%" y2="100%">
         <stop offset="0%" style="stop-color:#1AD6AB; stop-opacity:1"/>
         <stop offset="100%" style="stop-color:#329DB6; stop-opacity:1"/>
      </linearGradient>
      <linearGradient id="oomox" x1="0%" x2="0%" y1="0%" y2="100%">
         <stop offset="0%" style="stop-color:#0abdc6; stop-opacity:1"/>
         <stop offset="100%" style="stop-color:#b800ff; stop-opacity:1"/>
      </linearGradient>
      <linearGradient id="rainblue" x1="0%" x2="0%" y1="0%" y2="100%">
         <stop offset="0%" style="stop-color:#00F260; stop-opacity:1"/>
         <stop offset="100%" style="stop-color:#0575E6; stop-opacity:1"/>
      </linearGradient>
      <linearGradient id="sunrise" x1="0%" x2="0%" y1="0%" y2="100%">
         <stop offset="0%" style="stop-color: #FF8501; stop-opacity:1"/>
         <stop offset="100%" style="stop-color: #FFCB01; stop-opacity:1"/>
      </linearGradient>
      <linearGradient id="telinkrin" x1="0%" x2="0%" y1="0%" y2="100%">
         <stop offset="0%" style="stop-color: #b2ced6; stop-opacity:1"/>
         <stop offset="100%" style="stop-color: #6da5b7; stop-opacity:1"/>
      </linearGradient>
      <linearGradient id="60spsycho" x1="0%" x2="0%" y1="0%" y2="100%">
         <stop offset="0%" style="stop-color: #df5940; stop-opacity:1"/>
         <stop offset="25%" style="stop-color: #d8d15f; stop-opacity:1"/>
         <stop offset="50%" style="stop-color: #e9882a; stop-opacity:1"/>
         <stop offset="100%" style="stop-color: #279362; stop-opacity:1"/>
      </linearGradient>
      <linearGradient id="90ssummer" x1="0%" x2="0%" y1="0%" y2="100%">
         <stop offset="0%" style="stop-color: #f618c7; stop-opacity:1"/>
         <stop offset="20%" style="stop-color: #94ffab; stop-opacity:1"/>
         <stop offset="50%" style="stop-color: #fbfd54; stop-opacity:1"/>
         <stop offset="100%" style="stop-color: #0f83ae; stop-opacity:1"/>
      </linearGradient>
   </defs>
  <path
     id="path1"
     class="ColorScheme-Text"
     style="fill:url(#oomox);-inkscape-stroke:none"
     d="M 8 0 C 3.5876586 0 0 3.5876584 0 8 C 0 12.412342 3.5876586 16 8 16 C 12.412342 16 16 12.412342 16 8 C 16 3.5876584 12.412342 0 8 0 z M 8 1 C 11.871805 1 15 4.1281942 15 8 C 15 10.897027 13.247912 13.377885 10.744141 14.443359 C 10.719296 14.654902 10.675974 14.805614 10.611328 14.830078 C 10.5193 14.864125 10.263637 14.805309 9.9765625 14.716797 C 9.3499242 14.900311 8.6867308 15 8 15 C 7.7693036 15 7.5413181 14.988504 7.3164062 14.966797 C 6.9542657 15.147907 6.61038 15.292296 6.515625 15.238281 C 6.4518037 15.201657 6.4024206 15.03422 6.3671875 14.806641 C 3.285657 14.072722 1 11.309251 1 8 C 1 4.1281942 4.1281945 1 8 1 z " />
  <path
     id="path10"
     class="ColorScheme-Text"
     style="display:inline;opacity:1;fill:url(#oomox);stroke-width:0.533334"
     d="M 5.4023438,3.1992188 C 5.1900781,3.2002783 4.9775302,3.2297116 4.7695312,3.2675781 4.9023307,3.2798451 5.2132713,3.54774 5.3359375,3.5664062 5.1508718,3.691739 4.6667219,3.67224 4.6699219,3.9511719 c 0.6591965,-0.066133 1.3749582,0.046542 1.9824219,0.3164062 -0.483198,0.054933 -0.9337354,0.1650985 -1.25,0.3320313 C 4.4834149,5.082807 4.2447296,6.0633089 4.4863281,7.4179688 4.7284604,8.7715618 5.7815426,13.69026 6.1191406,15.333984 7.1186022,15.665184 9.5718676,15.543914 9.75,15.498047 9.4753348,14.957781 9.1796324,14.365479 8.9375,13.882812 8.4052359,12.818822 7.8597838,11.334116 8.1035156,10.367188 8.1893818,8.6173273 9.8099382,9.1314719 10.302734,8.3496094 10.592867,7.3341479 9.8924704,5.5741107 9.1191406,4.8007812 8.8674088,4.5490493 8.4895319,4.3845146 8.0527344,4.3007812 7.8847349,4.0703827 7.6047011,3.8541229 7.2207031,3.6503906 6.6783061,3.3623921 6.038607,3.1970855 5.4023438,3.1992188 Z m 3.7304687,2.4375 c 0.050245,-0.00179 0.1066022,0.00157 0.1679687,0.011719 0.3039994,0.050665 0.4121094,0.3242187 0.4121094,0.3242187 0,0 -0.2769015,-0.1569633 -0.4902344,-0.1542968 -0.438399,0.00587 -0.5566406,0.1992187 -0.5566406,0.1992187 0,0 0.057659,-0.3662775 0.4667969,-0.3808596 z m -3.375,0.1738281 c 0.2944491,0.00412 0.4394531,0.1953125 0.4394531,0.1953125 0,0 -0.3821741,-0.1735852 -0.7539062,0.060547 -0.3711991,0.2335995 -0.359375,0.4726563 -0.359375,0.4726563 0,0 -0.1963204,-0.4402506 0.3300781,-0.65625 0.131733,-0.054 0.2456003,-0.073641 0.34375,-0.072266 z m 3.6894531,0.9296875 c 0.2415992,0 0.4355469,0.1950145 0.4355469,0.4355468 0,0.2415992 -0.1939477,0.4355469 -0.4355469,0.4355469 -0.2399988,0 -0.4375,-0.1939477 -0.4375,-0.4355469 0,-0.2405323 0.1969679,-0.4355468 0.4375,-0.4355468 z M 9.640625,6.9160156 c -0.061866,0 -0.1132812,0.051414 -0.1132812,0.1132813 -1e-7,0.062935 0.051948,0.1132812 0.1132812,0.1132812 0.064,0 0.1132812,-0.050349 0.1132812,-0.1132812 0,-0.062399 -0.049282,-0.1132813 -0.1132812,-0.1132813 z m -3.6132812,0.054687 c 0.00867,-4.374e-4 0.016607,0 0.025391,0 0.2799985,0 0.5097656,0.227281 0.5097656,0.5078125 0,0.280532 -0.2292337,0.5078125 -0.5097656,0.5078125 -0.2810651,0 -0.5078125,-0.2272805 -0.5078125,-0.5078125 0,-0.2717648 0.2135651,-0.494252 0.4824215,-0.5078125 z M 6.265625,7.1777344 c -0.06583,0.00677 -0.1191406,0.062359 -0.1191406,0.1308594 0,0.072532 0.060812,0.1328124 0.1328125,0.1328124 0.072532,10e-8 0.1308594,-0.059746 0.1308593,-0.1328124 0,-0.073067 -0.057793,-0.1308594 -0.1308593,-0.1308594 -0.0045,0 -0.00928,-4.515e-4 -0.013672,0 z m 0.1660156,5.7578126 c 0.4392031,-0.02135 1.7851563,0.697265 1.7851563,0.697265 l 0.09375,0.78711 c 0,0 -1.5741221,0.944226 -1.7949219,0.818359 -0.2202665,-0.1264 -0.2527031,-1.795477 -0.2207031,-2.205078 0.00483,-0.06392 0.055385,-0.0937 0.1367187,-0.09766 z" />
  <path
     d="m 7.6074667,9.4357333 c 0.050667,-0.3071999 0.8448,-0.8885335 1.4064,-0.9237334 0.5632,-0.0352 0.7386666,-0.027735 1.2080003,-0.1397336 0.4704,-0.1125329 1.681066,-0.4138665 2.016,-0.5690665 0.336,-0.1551999 1.7568,0.0768 0.7552,0.6352 -0.4336,0.2426665 -1.6,0.688 -2.4368,0.9370665 -0.8341337,0.2496 -1.3397337,-0.2384 -1.6160003,0.1717335 -0.2208,0.3258665 -0.0448,0.7728002 0.952,0.8650662 1.3461333,0.1248 2.6362663,-0.6058662 2.7781333,-0.218133 0.142933,0.388266 -1.1568,0.872534 -1.947733,0.888 C 9.9328,11.097068 8.3392,10.559466 8.1008,10.393066 7.8613333,10.226667 7.5424,9.8394663 7.6085333,9.4346663 Z"
     style="fill:url(#oomox);stroke-width:0.533334"
     id="path15"
     class="ColorScheme-Text" />
  <path
     d="m 8.2165333,13.632533 c 0,0 -1.8906666,-1.008533 -1.9216,-0.599467 -0.032,0.409601 0,2.079467 0.2202667,2.205867 0.2208,0.125867 1.7962667,-0.8192 1.7962667,-0.8192 L 8.2165333,13.632"
     style="fill:url(#oomox);stroke-width:0.533334;opacity:0.6"
     id="path16"
     class="ColorScheme-Text" />
  <path
     d="m 8.9408,13.568533 c 0,0 1.291733,-0.977067 1.576,-0.9136 0.2832,0.064 0.346133,2.08 0.09387,2.175466 C 10.3584,14.923733 8.88,14.318933 8.88,14.318933 l 0.0608,-0.749867 z"
     style="fill:url(#oomox);stroke-width:0.533334;opacity:0.6"
     id="path17"
     class="ColorScheme-Text" />
  <path
     d="m 7.7589333,13.7392 c 0,0.661333 -0.094933,0.945066 0.1893334,1.008 0.2832,0.06346 0.8186666,0 1.008,-0.125867 C 9.1456,14.495466 8.9872,13.644799 8.9248,13.486399 8.8613333,13.3296 7.7589333,13.456 7.7589333,13.7392 Z"
     style="fill:#000000;stroke-width:0.533334;opacity:0.6"
     id="path18" />
  <path
     d="m 7.8789333,13.591999 c 0,0.661334 -0.094933,0.9456 0.1893334,1.008 0.2826666,0.06346 0.8186666,0 1.008,-0.125866 0.1893333,-0.1264 0.030933,-0.976 -0.032,-1.135467 -0.062933,-0.157332 -1.1653334,-0.0304 -1.1653334,0.252801 z"
     style="fill:url(#oomox);stroke-width:0.533334"
     id="path19"
     class="ColorScheme-Text" />
  <metadata
     id="metadata19">
    <rdf:RDF>
      <cc:Work
         rdf:about="">
        <dc:creator>
          <cc:Agent>
            <dc:title>dreifacherspass</dc:title>
          </cc:Agent>
        </dc:creator>
        <cc:license
           rdf:resource="http://creativecommons.org/licenses/by-sa/4.0/" />
      </cc:Work>
      <cc:License
         rdf:about="http://creativecommons.org/licenses/by-sa/4.0/">
        <cc:permits
           rdf:resource="http://creativecommons.org/ns#Reproduction" />
        <cc:permits
           rdf:resource="http://creativecommons.org/ns#Distribution" />
        <cc:requires
           rdf:resource="http://creativecommons.org/ns#Notice" />
        <cc:requires
           rdf:resource="http://creativecommons.org/ns#Attribution" />
        <cc:permits
           rdf:resource="http://creativecommons.org/ns#DerivativeWorks" />
        <cc:requires
           rdf:resource="http://creativecommons.org/ns#ShareAlike" />
      </cc:License>
    </rdf:RDF>
  </metadata>
</svg>

<?xml version="1.0" encoding="UTF-8" standalone="no"?>
<svg
   version="1.1"
   viewBox="0 0 16 16"
   id="svg19"
   width="16"
   height="16"
   xmlns="http://www.w3.org/2000/svg"
   xmlns:svg="http://www.w3.org/2000/svg"
   xmlns:rdf="http://www.w3.org/1999/02/22-rdf-syntax-ns#"
   xmlns:cc="http://creativecommons.org/ns#"
   xmlns:dc="http://purl.org/dc/elements/1.1/">
  <defs>
   <style id="current-color-scheme" type="text/css">
   .ColorScheme-Text { color: #0abdc6; } .ColorScheme-Highlight { color:#5294e2; }
  </style>
  <linearGradient id="arrongin" x1="0%" x2="0%" y1="0%" y2="100%">
   <stop offset="0%" style="stop-color:#dd9b44; stop-opacity:1"/>
   <stop offset="100%" style="stop-color:#ad6c16; stop-opacity:1"/>
  </linearGradient>
  <linearGradient id="aurora" x1="0%" x2="0%" y1="0%" y2="100%">
   <stop offset="0%" style="stop-color:#09D4DF; stop-opacity:1"/>
   <stop offset="100%" style="stop-color:#9269F4; stop-opacity:1"/>
  </linearGradient>
  <linearGradient id="cyberneon" x1="0%" x2="0%" y1="0%" y2="100%">
    <stop offset="0" style="stop-color:#0abdc6; stop-opacity:1"/>
    <stop offset="1" style="stop-color:#ea00d9; stop-opacity:1"/>
  </linearGradient>
  <linearGradient id="fitdance" x1="0%" x2="0%" y1="0%" y2="100%">
   <stop offset="0%" style="stop-color:#1AD6AB; stop-opacity:1"/>
   <stop offset="100%" style="stop-color:#329DB6; stop-opacity:1"/>
  </linearGradient>
  <linearGradient id="oomox" x1="0%" x2="0%" y1="0%" y2="100%">
   <stop offset="0%" style="stop-color:#0abdc6; stop-opacity:1"/>
   <stop offset="100%" style="stop-color:#b800ff; stop-opacity:1"/>
  </linearGradient>
  <linearGradient id="rainblue" x1="0%" x2="0%" y1="0%" y2="100%">
   <stop offset="0%" style="stop-color:#00F260; stop-opacity:1"/>
   <stop offset="100%" style="stop-color:#0575E6; stop-opacity:1"/>
  </linearGradient>
  <linearGradient id="sunrise" x1="0%" x2="0%" y1="0%" y2="100%">
   <stop offset="0%" style="stop-color: #FF8501; stop-opacity:1"/>
   <stop offset="100%" style="stop-color: #FFCB01; stop-opacity:1"/>
  </linearGradient>
  <linearGradient id="telinkrin" x1="0%" x2="0%" y1="0%" y2="100%">
   <stop offset="0%" style="stop-color: #b2ced6; stop-opacity:1"/>
   <stop offset="100%" style="stop-color: #6da5b7; stop-opacity:1"/>
  </linearGradient>
  <linearGradient id="60spsycho" x1="0%" x2="0%" y1="0%" y2="100%">
   <stop offset="0%" style="stop-color: #df5940; stop-opacity:1"/>
   <stop offset="25%" style="stop-color: #d8d15f; stop-opacity:1"/>
   <stop offset="50%" style="stop-color: #e9882a; stop-opacity:1"/>
   <stop offset="100%" style="stop-color: #279362; stop-opacity:1"/>
  </linearGradient>
  <linearGradient id="90ssummer" x1="0%" x2="0%" y1="0%" y2="100%">
   <stop offset="0%" style="stop-color: #f618c7; stop-opacity:1"/>
   <stop offset="20%" style="stop-color: #94ffab; stop-opacity:1"/>
   <stop offset="50%" style="stop-color: #fbfd54; stop-opacity:1"/>
   <stop offset="100%" style="stop-color: #0f83ae; stop-opacity:1"/>
  </linearGradient>
 </defs>
  <path
     d="M 8,0 A 8.0000002,8 0 0 0 8,16 8.0000002,8 0 0 0 8,0 Z M 8,0.53333333 A 7.4666668,7.4666665 0 0 1 8,15.466666 7.4666668,7.4666665 0 0 1 8,0.53333333 Z"
     style="fill:url(#oomox);stroke-width:0.533334"
     id="path9"
     class="ColorScheme-Text"/>
  <path
     id="path10"
     class="ColorScheme-Text"
     style="opacity:1;fill:url(#oomox);stroke-width:0.533334"
     d="M 5.4023438 3.1992188 C 5.1900781 3.2002783 4.9775302 3.2297116 4.7695312 3.2675781 C 4.9023307 3.2798451 5.2132713 3.54774 5.3359375 3.5664062 C 5.1508718 3.691739 4.6667219 3.67224 4.6699219 3.9511719 C 5.3291184 3.8850389 6.0448801 3.9977136 6.6523438 4.2675781 C 6.1691458 4.3225111 5.7186084 4.4326766 5.4023438 4.5996094 C 4.4834149 5.082807 4.2447296 6.0633089 4.4863281 7.4179688 C 4.7284604 8.7715618 5.7815426 13.69026 6.1191406 15.333984 C 7.1186022 15.665184 9.5718676 15.543914 9.75 15.498047 C 9.4753348 14.957781 9.1796324 14.365479 8.9375 13.882812 C 8.4052359 12.818822 7.8597838 11.334116 8.1035156 10.367188 C 8.1893818 8.6173273 9.8099382 9.1314719 10.302734 8.3496094 C 10.592867 7.3341479 9.8924704 5.5741107 9.1191406 4.8007812 C 8.8674088 4.5490493 8.4895319 4.3845146 8.0527344 4.3007812 C 7.8847349 4.0703827 7.6047011 3.8541229 7.2207031 3.6503906 C 6.6783061 3.3623921 6.038607 3.1970855 5.4023438 3.1992188 z M 9.1328125 5.6367188 C 9.1830575 5.634928 9.2394147 5.6382875 9.3007812 5.6484375 C 9.6047806 5.6991023 9.7128906 5.9726562 9.7128906 5.9726562 C 9.7128906 5.9726562 9.4359891 5.8156929 9.2226562 5.8183594 C 8.7842572 5.8242294 8.6660156 6.0175781 8.6660156 6.0175781 C 8.6660156 6.0175781 8.7236741 5.6513006 9.1328125 5.6367188 z M 5.7578125 5.8105469 C 6.0522616 5.8146718 6.1972656 6.0058594 6.1972656 6.0058594 C 6.1972656 6.0058594 5.8150915 5.8322742 5.4433594 6.0664062 C 5.0721603 6.3000057 5.0839844 6.5390625 5.0839844 6.5390625 C 5.0839844 6.5390625 4.887664 6.0988119 5.4140625 5.8828125 C 5.5457955 5.8288128 5.6596628 5.8091719 5.7578125 5.8105469 z M 9.4472656 6.7402344 C 9.6888648 6.7402344 9.8828125 6.9352489 9.8828125 7.1757812 C 9.8828125 7.4173804 9.6888648 7.6113281 9.4472656 7.6113281 C 9.2072668 7.6113281 9.0097656 7.4173804 9.0097656 7.1757812 C 9.0097656 6.9352489 9.2067335 6.7402344 9.4472656 6.7402344 z M 9.640625 6.9160156 C 9.5787591 6.9160156 9.5273438 6.9674299 9.5273438 7.0292969 C 9.5273437 7.0922315 9.5792921 7.1425781 9.640625 7.1425781 C 9.704625 7.1425781 9.7539062 7.0922295 9.7539062 7.0292969 C 9.7539062 6.9668984 9.7046246 6.9160156 9.640625 6.9160156 z M 6.0273438 6.9707031 C 6.0360162 6.9702657 6.0439511 6.9707031 6.0527344 6.9707031 C 6.3327329 6.9707031 6.5625 7.1979841 6.5625 7.4785156 C 6.5625 7.7590476 6.3332663 7.9863281 6.0527344 7.9863281 C 5.7716693 7.9863281 5.5449219 7.7590476 5.5449219 7.4785156 C 5.5449219 7.2067508 5.758487 6.9842636 6.0273438 6.9707031 z M 6.265625 7.1777344 C 6.1997954 7.1845059 6.1464844 7.2400935 6.1464844 7.3085938 C 6.1464844 7.3811262 6.2072969 7.4414062 6.2792969 7.4414062 C 6.3518294 7.4414063 6.4101563 7.3816603 6.4101562 7.3085938 C 6.4101562 7.2355267 6.3523634 7.1777344 6.2792969 7.1777344 C 6.2747969 7.1777344 6.2700137 7.1772829 6.265625 7.1777344 z M 6.4316406 12.935547 C 6.8708437 12.914202 8.2167969 13.632812 8.2167969 13.632812 L 8.3105469 14.419922 C 8.3105469 14.419922 6.7364248 15.364148 6.515625 15.238281 C 6.2953585 15.111881 6.2629219 13.442804 6.2949219 13.033203 C 6.2997552 12.969287 6.3503067 12.9395 6.4316406 12.935547 z " />
  <path
     d="m 7.6074667,9.4357333 c 0.050667,-0.3071999 0.8448,-0.8885335 1.4064,-0.9237334 0.5632,-0.0352 0.7386666,-0.027735 1.2080003,-0.1397336 0.4704,-0.1125329 1.681066,-0.4138665 2.016,-0.5690665 0.336,-0.1551999 1.7568,0.0768 0.7552,0.6352 -0.4336,0.2426665 -1.6,0.688 -2.4368,0.9370665 -0.8341337,0.2496 -1.3397337,-0.2384 -1.6160003,0.1717335 -0.2208,0.3258665 -0.0448,0.7728002 0.952,0.8650662 1.3461333,0.1248 2.6362663,-0.6058662 2.7781333,-0.218133 0.142933,0.388266 -1.1568,0.872534 -1.947733,0.888 C 9.9328,11.097068 8.3392,10.559466 8.1008,10.393066 7.8613333,10.226667 7.5424,9.8394663 7.6085333,9.4346663 Z"
     style="fill:url(#oomox);stroke-width:0.533334"
     id="path15"
     class="ColorScheme-Text"/>
  <path
     d="m 8.2165333,13.632533 c 0,0 -1.8906666,-1.008533 -1.9216,-0.599467 -0.032,0.409601 0,2.079467 0.2202667,2.205867 0.2208,0.125867 1.7962667,-0.8192 1.7962667,-0.8192 L 8.2165333,13.632"
     style="fill:url(#oomox);stroke-width:0.533334;opacity:0.6"
     id="path16"
     class="ColorScheme-Text"/>
  <path
     d="m 8.9408,13.568533 c 0,0 1.291733,-0.977067 1.576,-0.9136 0.2832,0.064 0.346133,2.08 0.09387,2.175466 C 10.3584,14.923733 8.88,14.318933 8.88,14.318933 l 0.0608,-0.749867 z"
     style="fill:url(#oomox);stroke-width:0.533334;opacity:0.6"
     id="path17"
     class="ColorScheme-Text"/>
  <path
     d="m 7.7589333,13.7392 c 0,0.661333 -0.094933,0.945066 0.1893334,1.008 0.2832,0.06346 0.8186666,0 1.008,-0.125867 C 9.1456,14.495466 8.9872,13.644799 8.9248,13.486399 8.8613333,13.3296 7.7589333,13.456 7.7589333,13.7392 Z"
     style="fill:#000000;stroke-width:0.533334;opacity:0.6"
     id="path18" />
  <path
     d="m 7.8789333,13.591999 c 0,0.661334 -0.094933,0.9456 0.1893334,1.008 0.2826666,0.06346 0.8186666,0 1.008,-0.125866 0.1893333,-0.1264 0.030933,-0.976 -0.032,-1.135467 -0.062933,-0.157332 -1.1653334,-0.0304 -1.1653334,0.252801 z"
     style="fill:url(#oomox);stroke-width:0.533334"
     id="path19"
     class="ColorScheme-Text"/>
  <metadata
     id="metadata19">
    <rdf:RDF>
      <cc:Work
         rdf:about="">
        <dc:creator>
          <cc:Agent>
            <dc:title>dreifacherspass</dc:title>
          </cc:Agent>
        </dc:creator>
        <cc:license
           rdf:resource="http://creativecommons.org/licenses/by-sa/4.0/" />
      </cc:Work>
      <cc:License
         rdf:about="http://creativecommons.org/licenses/by-sa/4.0/">
        <cc:permits
           rdf:resource="http://creativecommons.org/ns#Reproduction" />
        <cc:permits
           rdf:resource="http://creativecommons.org/ns#Distribution" />
        <cc:requires
           rdf:resource="http://creativecommons.org/ns#Notice" />
        <cc:requires
           rdf:resource="http://creativecommons.org/ns#Attribution" />
        <cc:permits
           rdf:resource="http://creativecommons.org/ns#DerivativeWorks" />
        <cc:requires
           rdf:resource="http://creativecommons.org/ns#ShareAlike" />
      </cc:License>
    </rdf:RDF>
  </metadata>
</svg>
